third_party/noto/noto_2/emoji_u1f4c7.svg

<svg enable-background="new 0 0 128 128" viewBox="0 0 128 128" xmlns="http://www.w3.org/2000/svg"><linearGradient id="c" x1="64.069" x2="64.069" y1="41.449" y2="126.53" gradientUnits="userSpaceOnUse"><stop stop-color="#757575" offset="0"/><stop stop-color="#424242" offset="1"/></linearGradient><path d="m113.04 41.82h-97.95c-6.05 0-10.96 4.91-10.96 10.96v13.25c0 6.05 4.91 10.96 10.96 10.96h0.37v37.67c0 6.05 4.91 10.96 10.96 10.96h75.3c6.05 0 10.96-4.91 10.96-10.96v-37.68h0.37c6.05 0 10.96-4.91 10.96-10.96v-13.25c-0.01-6.05-4.92-10.95-10.97-10.95z" fill="url(#c)"/><linearGradient id="b" x1="63.931" x2="63.931" y1="4.2564" y2="54.994" gradientUnits="userSpaceOnUse"><stop stop-color="#fff" offset="0"/><stop stop-color="#C8C9CA" offset="1"/></linearGradient><path d="m101.25 56.36h-74.64c-1.66 0-3-1.34-3-3v-46.29c0-1.66 1.34-3 3-3h74.64c1.66 0 3 1.34 3 3v46.29c0 1.66-1.34 3-3 3z" fill="url(#b)"/><path d="m101.25 118.23h-74.64c-1.66 0-3-1.34-3-3v-48.29c0-1.66 1.34-3 3-3h74.64c1.66 0 3 1.34 3 3v48.29c0 1.65-1.34 3-3 3z" fill="#757575"/><path d="m101.25 114.65h-74.64c-1.66 0-3-1.34-3-3v-44.71c0-1.66 1.34-3 3-3h74.64c1.66 0 3 1.34 3 3v44.71c0 1.66-1.34 3-3 3z" fill="#BDBDBD"/><linearGradient id="a" x1="63.931" x2="63.931" y1="64.845" y2="108.79" gradientUnits="userSpaceOnUse"><stop stop-color="#C8C9CA" offset="0"/><stop stop-color="#fff" offset="1"/></linearGradient><path d="m101.25 109.57h-74.64c-1.66 0-3-1.34-3-3v-39.63c0-1.66 1.34-3 3-3h74.64c1.66 0 3 1.34 3 3v39.63c0 1.66-1.34 3-3 3z" fill="url(#a)"/><path d="m55.86 47.74h-22.15c-1.1 0-2-0.9-2-2v-30.68c0-1.1 0.9-2 2-2h22.15c1.1 0 2 0.9 2 2v30.68c0 1.11-0.89 2-2 2z" fill="#78909C"/><g fill="#9E9E9F"><path d="m96.94 18.4h-30.35c-0.68 0-1.23-0.77-1.23-1.72s0.55-1.72 1.23-1.72h30.35c0.68 0 1.23 0.77 1.23 1.72 0.01 0.95-0.54 1.72-1.23 1.72z"/><path d="m96.94 28.18h-30.35c-0.68 0-1.23-0.77-1.23-1.72s0.55-1.72 1.23-1.72h30.35c0.68 0 1.23 0.77 1.23 1.72s-0.54 1.72-1.23 1.72z"/><path d="m96.94 37.96h-30.35c-0.68 0-1.23-0.77-1.23-1.72s0.55-1.72 1.23-1.72h30.35c0.68 0 1.23 0.77 1.23 1.72s-0.54 1.72-1.23 1.72z"/><path d="m96.94 47.74h-30.35c-0.68 0-1.23-0.77-1.23-1.72s0.55-1.72 1.23-1.72h30.35c0.68 0 1.23 0.77 1.23 1.72s-0.54 1.72-1.23 1.72z"/></g><g fill="#424242"><path d="m45.91 68.76h-2.21c-1.07 0-1.94-0.87-1.94-1.94v-13.8c0-1.07 0.87-1.94 1.94-1.94h2.22c1.07 0 1.94 0.87 1.94 1.94v13.8c-0.01 1.07-0.88 1.94-1.95 1.94z"/><path d="m84.44 68.76h-2.22c-1.07 0-1.94-0.87-1.94-1.94v-13.8c0-1.07 0.87-1.94 1.94-1.94h2.22c1.07 0 1.94 0.87 1.94 1.94v13.8c0 1.07-0.87 1.94-1.94 1.94z"/></g><g opacity=".2"><path d="m100.8 7.07c0.17 0 0.31 0.14 0.31 0.31v34.43c0 1.66 1.34 3 3 3h8.79c4.39 0 7.96 3.57 7.96 7.96v13.25c0 4.39-3.57 7.96-7.96 7.96h-0.37c-1.66 0-3 1.34-3 3v37.67c0 4.39-3.57 7.96-7.96 7.96h-75.3c-4.39 0-7.96-3.57-7.96-7.96v-37.67c0-1.66-1.34-3-3-3h-0.37c-4.39 0-7.96-3.57-7.96-7.96v-13.25c0-4.39 3.57-7.96 7.96-7.96h8.51c1.66 0 3-1.34 3-3v-34.42c0-0.17 0.14-0.31 0.31-0.31h74.04m0-3.01h-74.01c-1.83 0-3.31 1.48-3.31 3.31v34.43h-8.51c-6.06 0.01-10.97 4.91-10.97 10.96v13.25c0 6.05 4.91 10.96 10.96 10.96h0.37v37.67c0 6.05 4.91 10.96 10.96 10.96h75.3c6.05 0 10.96-4.91 10.96-10.96v-37.67h0.37c6.05 0 10.96-4.91 10.96-10.96v-13.25c0-6.05-4.91-10.96-10.96-10.96h-8.79v-34.42c-0.01-1.83-1.5-3.32-3.33-3.32z" fill="#424242"/></g></svg>

<svg width="128" height="128" style="enable-background:new 0 0 128 128;" xmlns="http://www.w3.org/2000/svg" xmlns:xlink="http://www.w3.org/1999/xlink">
  <g id="图层_1">
    <g>
      <linearGradient id="SVGID_1_" gradientUnits="userSpaceOnUse" x1="64.0686" x2="64.0686" y1="41.4489" y2="126.5255">
        <stop offset="0" style="stop-color:#757575"/>
        <stop offset="1" style="stop-color:#424242"/>
      </linearGradient>
      <path d="M113.04,41.82H15.09c-6.05,0-10.96,4.91-10.96,10.96v13.25c0,6.05,4.91,10.96,10.96,10.96 h0.37v37.67c0,6.05,4.91,10.96,10.96,10.96h75.3c6.05,0,10.96-4.91,10.96-10.96V76.98h0.37c6.05,0,10.96-4.91,10.96-10.96V52.77 C124,46.72,119.09,41.82,113.04,41.82z" style="fill:url(#SVGID_1_);"/>
      <linearGradient id="SVGID_3_" gradientUnits="userSpaceOnUse" x1="63.9314" x2="63.9314" y1="4.2564" y2="54.9935">
        <stop offset="0" style="stop-color:#FFFFFF"/>
        <stop offset="1" style="stop-color:#C8C9CA"/>
      </linearGradient>
      <path d="M101.25,56.36H26.61c-1.66,0-3-1.34-3-3V7.07c0-1.66,1.34-3,3-3h74.64c1.66,0,3,1.34,3,3 v46.29C104.25,55.02,102.91,56.36,101.25,56.36z" style="fill:url(#SVGID_3_);"/>
      <path d="M101.25,118.23H26.61c-1.66,0-3-1.34-3-3V66.94c0-1.66,1.34-3,3-3h74.64c1.66,0,3,1.34,3,3v48.29 C104.25,116.88,102.91,118.23,101.25,118.23z" style="fill:#757575;"/>
      <path d="M101.25,114.65H26.61c-1.66,0-3-1.34-3-3V66.94c0-1.66,1.34-3,3-3h74.64c1.66,0,3,1.34,3,3v44.71 C104.25,113.31,102.91,114.65,101.25,114.65z" style="fill:#BDBDBD;"/>
      <linearGradient id="SVGID_4_" gradientUnits="userSpaceOnUse" x1="63.9314" x2="63.9314" y1="64.8448" y2="108.7924">
        <stop offset="0" style="stop-color:#C8C9CA"/>
        <stop offset="1" style="stop-color:#FFFFFF"/>
      </linearGradient>
      <path d="M101.25,109.57H26.61c-1.66,0-3-1.34-3-3V66.94c0-1.66,1.34-3,3-3h74.64c1.66,0,3,1.34,3,3 v39.63C104.25,108.23,102.91,109.57,101.25,109.57z" style="fill:url(#SVGID_4_);"/>
      <path d="M55.86,47.74H33.71c-1.1,0-2-0.9-2-2V15.06c0-1.1,0.9-2,2-2h22.15c1.1,0,2,0.9,2,2v30.68 C57.86,46.85,56.97,47.74,55.86,47.74z" style="fill:#78909C;"/>
      <g>
        <path d="M96.94,18.4H66.59c-0.68,0-1.23-0.77-1.23-1.72c0-0.95,0.55-1.72,1.23-1.72h30.35 c0.68,0,1.23,0.77,1.23,1.72C98.18,17.63,97.63,18.4,96.94,18.4z" style="fill:#9E9E9F;"/>
        <path d="M96.94,28.18H66.59c-0.68,0-1.23-0.77-1.23-1.72s0.55-1.72,1.23-1.72h30.35 c0.68,0,1.23,0.77,1.23,1.72S97.63,28.18,96.94,28.18z" style="fill:#9E9E9F;"/>
        <path d="M96.94,37.96H66.59c-0.68,0-1.23-0.77-1.23-1.72s0.55-1.72,1.23-1.72h30.35 c0.68,0,1.23,0.77,1.23,1.72S97.63,37.96,96.94,37.96z" style="fill:#9E9E9F;"/>
        <path d="M96.94,47.74H66.59c-0.68,0-1.23-0.77-1.23-1.72s0.55-1.72,1.23-1.72h30.35 c0.68,0,1.23,0.77,1.23,1.72S97.63,47.74,96.94,47.74z" style="fill:#9E9E9F;"/>
      </g>
      <g>
        <path d="M45.91,68.76H43.7c-1.07,0-1.94-0.87-1.94-1.94v-13.8c0-1.07,0.87-1.94,1.94-1.94h2.22 c1.07,0,1.94,0.87,1.94,1.94v13.8C47.85,67.89,46.98,68.76,45.91,68.76z" style="fill:#424242;"/>
        <path d="M84.44,68.76h-2.22c-1.07,0-1.94-0.87-1.94-1.94v-13.8c0-1.07,0.87-1.94,1.94-1.94h2.22 c1.07,0,1.94,0.87,1.94,1.94v13.8C86.38,67.89,85.51,68.76,84.44,68.76z" style="fill:#424242;"/>
      </g>
      <g style="opacity:0.2;">
        <path d="M100.8,7.07c0.17,0,0.31,0.14,0.31,0.31v34.43c0,1.66,1.34,3,3,3h8.79 c4.39,0,7.96,3.57,7.96,7.96v13.25c0,4.39-3.57,7.96-7.96,7.96h-0.37c-1.66,0-3,1.34-3,3v37.67c0,4.39-3.57,7.96-7.96,7.96 h-75.3c-4.39,0-7.96-3.57-7.96-7.96V76.98c0-1.66-1.34-3-3-3h-0.37c-4.39,0-7.96-3.57-7.96-7.96V52.77 c0-4.39,3.57-7.96,7.96-7.96h8.51c1.66,0,3-1.34,3-3V7.39c0-0.17,0.14-0.31,0.31-0.31H100.8 M100.8,4.07H26.79 c-1.83,0-3.31,1.48-3.31,3.31v34.43h-8.51C8.91,41.82,4,46.72,4,52.77v13.25c0,6.05,4.91,10.96,10.96,10.96h0.37v37.67 c0,6.05,4.91,10.96,10.96,10.96h75.3c6.05,0,10.96-4.91,10.96-10.96V76.98h0.37c6.05,0,10.96-4.91,10.96-10.96V52.77 c0-6.05-4.91-10.96-10.96-10.96h-8.79V7.39C104.12,5.56,102.63,4.07,100.8,4.07L100.8,4.07z" style="fill:#424242;"/>
      </g>
    </g>
  </g>
  <g id="Layer_2" style="display:none;">
    <g style="display:inline;">
      <g style="opacity:0.6;">
        <circle cx="64" cy="64" r="28" style="opacity:0.61;fill:none;stroke:#000000;stroke-width:0.2625;stroke-miterlimit:10;"/>
        <line style="opacity:0.61;fill:none;stroke:#000000;stroke-width:0.25;stroke-miterlimit:10;" x1="84" x2="84" y1="0" y2="128"/>
        <line style="opacity:0.61;fill:none;stroke:#000000;stroke-width:0.25;stroke-miterlimit:10;" x1="44" x2="44" y1="0" y2="128"/>
        <line style="opacity:0.61;fill:none;stroke:#000000;stroke-width:0.25;stroke-miterlimit:10;" x1="64" x2="64" y1="0" y2="128"/>
        <line style="opacity:0.61;fill:none;stroke:#000000;stroke-width:0.25;stroke-miterlimit:10;" x1="128" x2="0" y1="64" y2="64"/>
        <line style="opacity:0.61;fill:none;stroke:#000000;stroke-width:0.25;stroke-miterlimit:10;" x1="128" x2="0" y1="44" y2="44"/>
        <line style="opacity:0.61;fill:none;stroke:#000000;stroke-width:0.25;stroke-miterlimit:10;" x1="128" x2="0" y1="83.75" y2="83.75"/>
        <line style="opacity:0.61;fill:none;stroke:#000000;stroke-width:0.25;stroke-miterlimit:10;" x1="128" x2="0" y1="128" y2="0"/>
        <line style="opacity:0.61;fill:none;stroke:#000000;stroke-width:0.25;stroke-miterlimit:10;" x1="0" x2="128" y1="128" y2="0"/>
        <g style="opacity:0.61;">
          <path d="M64,4.26c32.94,0,59.74,26.8,59.74,59.74S96.94,123.74,64,123.74S4.26,96.94,4.26,64S31.06,4.26,64,4.26 M64,4 C30.86,4,4,30.86,4,64s26.86,60,60,60s60-26.86,60-60S97.14,4,64,4L64,4z"/>
        </g>
        <path d="M107.97,115.97H20.03 c-4.42,0-8.03-3.61-8.03-8.03V20.03c0-4.42,3.61-8.03,8.03-8.03h87.94c4.42,0,8.03,3.61,8.03,8.03v87.91 C116,112.36,112.39,115.97,107.97,115.97z" style="opacity:0.61;fill:none;stroke:#000000;stroke-width:0.2578;stroke-miterlimit:10;"/>
        <path d="M100,124H28c-4.4,0-8-3.6-8-8 V12c0-4.4,3.6-8,8-8h72c4.4,0,8,3.6,8,8v104C108,120.4,104.4,124,100,124z" style="opacity:0.61;fill:none;stroke:#000000;stroke-width:0.2628;stroke-miterlimit:10;"/>
        <path d="M113.77,108H14.23 C8.6,108,4,103.4,4,97.77V30.28c0-5.63,4.6-10.23,10.23-10.23h99.54c5.63,0,10.23,4.6,10.23,10.23v67.48 C124,103.4,119.4,108,113.77,108z" style="opacity:0.61;fill:none;stroke:#000000;stroke-width:0.2627;stroke-miterlimit:10;"/>
      </g>
      <g>
        <g style="opacity:0.2;">
          <defs>
            <rect id="SVGID_2_" height="128" style="opacity:0.2;" width="128" x="0" y="0"/>
          </defs>
          <clipPath id="SVGID_5_">
            <use style="overflow:visible;" xlink:href="#SVGID_2_"/>
          </clipPath>
          <g style="clip-path:url(#SVGID_5_);">
            <g>
              <line style="fill:none;stroke:#000000;stroke-width:0.25;stroke-miterlimit:10;" x1="-28" x2="-28" y1="160" y2="-32"/>
              <line style="fill:none;stroke:#000000;stroke-width:0.25;stroke-miterlimit:10;" x1="-24" x2="-24" y1="160" y2="-32"/>
              <line style="fill:none;stroke:#000000;stroke-width:0.25;stroke-miterlimit:10;" x1="-20" x2="-20" y1="160" y2="-32"/>
              <line style="fill:none;stroke:#000000;stroke-width:0.25;stroke-miterlimit:10;" x1="-16" x2="-16" y1="160" y2="-32"/>
              <line style="fill:none;stroke:#000000;stroke-width:0.25;stroke-miterlimit:10;" x1="-12" x2="-12" y1="160" y2="-32"/>
              <line style="fill:none;stroke:#000000;stroke-width:0.25;stroke-miterlimit:10;" x1="-8" x2="-8" y1="160" y2="-32"/>
              <line style="fill:none;stroke:#000000;stroke-width:0.25;stroke-miterlimit:10;" x1="-4" x2="-4" y1="160" y2="-32"/>
              <line style="fill:none;stroke:#000000;stroke-width:0.25;stroke-miterlimit:10;" x1="0" x2="0" y1="160" y2="-32"/>
              <line style="fill:none;stroke:#000000;stroke-width:0.25;stroke-miterlimit:10;" x1="4" x2="4" y1="160" y2="-32"/>
              <line style="fill:none;stroke:#000000;stroke-width:0.25;stroke-miterlimit:10;" x1="8" x2="8" y1="160" y2="-32"/>
              <line style="fill:none;stroke:#000000;stroke-width:0.25;stroke-miterlimit:10;" x1="12" x2="12" y1="160" y2="-32"/>
              <line style="fill:none;stroke:#000000;stroke-width:0.25;stroke-miterlimit:10;" x1="16" x2="16" y1="160" y2="-32"/>
              <line style="fill:none;stroke:#000000;stroke-width:0.25;stroke-miterlimit:10;" x1="20" x2="20" y1="160" y2="-32"/>
              <line style="fill:none;stroke:#000000;stroke-width:0.25;stroke-miterlimit:10;" x1="24" x2="24" y1="160" y2="-32"/>
              <line style="fill:none;stroke:#000000;stroke-width:0.25;stroke-miterlimit:10;" x1="28" x2="28" y1="160" y2="-32"/>
              <line style="fill:none;stroke:#000000;stroke-width:0.25;stroke-miterlimit:10;" x1="32" x2="32" y1="160" y2="-32"/>
              <line style="fill:none;stroke:#000000;stroke-width:0.25;stroke-miterlimit:10;" x1="36" x2="36" y1="160" y2="-32"/>
              <line style="fill:none;stroke:#000000;stroke-width:0.25;stroke-miterlimit:10;" x1="40" x2="40" y1="160" y2="-32"/>
              <line style="fill:none;stroke:#000000;stroke-width:0.25;stroke-miterlimit:10;" x1="44" x2="44" y1="160" y2="-32"/>
              <line style="fill:none;stroke:#000000;stroke-width:0.25;stroke-miterlimit:10;" x1="48" x2="48" y1="160" y2="-32"/>
              <line style="fill:none;stroke:#000000;stroke-width:0.25;stroke-miterlimit:10;" x1="52" x2="52" y1="160" y2="-32"/>
              <line style="fill:none;stroke:#000000;stroke-width:0.25;stroke-miterlimit:10;" x1="56" x2="56" y1="160" y2="-32"/>
              <line style="fill:none;stroke:#000000;stroke-width:0.25;stroke-miterlimit:10;" x1="60" x2="60" y1="160" y2="-32"/>
              <line style="fill:none;stroke:#000000;stroke-width:0.25;stroke-miterlimit:10;" x1="64" x2="64" y1="160" y2="-32"/>
              <line style="fill:none;stroke:#000000;stroke-width:0.25;stroke-miterlimit:10;" x1="68" x2="68" y1="160" y2="-32"/>
              <line style="fill:none;stroke:#000000;stroke-width:0.25;stroke-miterlimit:10;" x1="72" x2="72" y1="160" y2="-32"/>
              <line style="fill:none;stroke:#000000;stroke-width:0.25;stroke-miterlimit:10;" x1="76" x2="76" y1="160" y2="-32"/>
              <line style="fill:none;stroke:#000000;stroke-width:0.25;stroke-miterlimit:10;" x1="80" x2="80" y1="160" y2="-32"/>
              <line style="fill:none;stroke:#000000;stroke-width:0.25;stroke-miterlimit:10;" x1="84" x2="84" y1="160" y2="-32"/>
              <line style="fill:none;stroke:#000000;stroke-width:0.25;stroke-miterlimit:10;" x1="88" x2="88" y1="160" y2="-32"/>
              <line style="fill:none;stroke:#000000;stroke-width:0.25;stroke-miterlimit:10;" x1="92" x2="92" y1="160" y2="-32"/>
              <line style="fill:none;stroke:#000000;stroke-width:0.25;stroke-miterlimit:10;" x1="96" x2="96" y1="160" y2="-32"/>
              <line style="fill:none;stroke:#000000;stroke-width:0.25;stroke-miterlimit:10;" x1="100" x2="100" y1="160" y2="-32"/>
              <line style="fill:none;stroke:#000000;stroke-width:0.25;stroke-miterlimit:10;" x1="104" x2="104" y1="160" y2="-32"/>
              <line style="fill:none;stroke:#000000;stroke-width:0.25;stroke-miterlimit:10;" x1="108" x2="108" y1="160" y2="-32"/>
              <line style="fill:none;stroke:#000000;stroke-width:0.25;stroke-miterlimit:10;" x1="112" x2="112" y1="160" y2="-32"/>
              <line style="fill:none;stroke:#000000;stroke-width:0.25;stroke-miterlimit:10;" x1="116" x2="116" y1="160" y2="-32"/>
              <line style="fill:none;stroke:#000000;stroke-width:0.25;stroke-miterlimit:10;" x1="120" x2="120" y1="160" y2="-32"/>
              <line style="fill:none;stroke:#000000;stroke-width:0.25;stroke-miterlimit:10;" x1="124" x2="124" y1="160" y2="-32"/>
              <line style="fill:none;stroke:#000000;stroke-width:0.25;stroke-miterlimit:10;" x1="128" x2="128" y1="160" y2="-32"/>
              <line style="fill:none;stroke:#000000;stroke-width:0.25;stroke-miterlimit:10;" x1="132" x2="132" y1="160" y2="-32"/>
              <line style="fill:none;stroke:#000000;stroke-width:0.25;stroke-miterlimit:10;" x1="136" x2="136" y1="160" y2="-32"/>
              <line style="fill:none;stroke:#000000;stroke-width:0.25;stroke-miterlimit:10;" x1="137" x2="137" y1="166.05" y2="-25.95"/>
              <line style="fill:none;stroke:#000000;stroke-width:0.25;stroke-miterlimit:10;" x1="144" x2="144" y1="160" y2="-32"/>
              <line style="fill:none;stroke:#000000;stroke-width:0.25;stroke-miterlimit:10;" x1="148" x2="148" y1="160" y2="-32"/>
              <line style="fill:none;stroke:#000000;stroke-width:0.25;stroke-miterlimit:10;" x1="152" x2="152" y1="160" y2="-32"/>
              <line style="fill:none;stroke:#000000;stroke-width:0.25;stroke-miterlimit:10;" x1="156" x2="156" y1="160" y2="-32"/>
            </g>
            <g>
              <line style="fill:none;stroke:#000000;stroke-width:0.25;stroke-miterlimit:10;" x1="-32" x2="160" y1="-28" y2="-28"/>
              <line style="fill:none;stroke:#000000;stroke-width:0.25;stroke-miterlimit:10;" x1="-32" x2="160" y1="-24" y2="-24"/>
              <line style="fill:none;stroke:#000000;stroke-width:0.25;stroke-miterlimit:10;" x1="-32" x2="160" y1="-20" y2="-20"/>
              <line style="fill:none;stroke:#000000;stroke-width:0.25;stroke-miterlimit:10;" x1="-32" x2="160" y1="-16" y2="-16"/>
              <line style="fill:none;stroke:#000000;stroke-width:0.25;stroke-miterlimit:10;" x1="-32" x2="160" y1="-12" y2="-12"/>
              <line style="fill:none;stroke:#000000;stroke-width:0.25;stroke-miterlimit:10;" x1="-32" x2="160" y1="-8" y2="-8"/>
              <line style="fill:none;stroke:#000000;stroke-width:0.25;stroke-miterlimit:10;" x1="-32" x2="160" y1="-4" y2="-4"/>
              <line style="fill:none;stroke:#000000;stroke-width:0.25;stroke-miterlimit:10;" x1="-32" x2="160" y1="0" y2="0"/>
              <line style="fill:none;stroke:#000000;stroke-width:0.25;stroke-miterlimit:10;" x1="-32" x2="160" y1="4" y2="4"/>
              <line style="fill:none;stroke:#000000;stroke-width:0.25;stroke-miterlimit:10;" x1="-32" x2="160" y1="8" y2="8"/>
              <line style="fill:none;stroke:#000000;stroke-width:0.25;stroke-miterlimit:10;" x1="-32" x2="160" y1="12" y2="12"/>
              <line style="fill:none;stroke:#000000;stroke-width:0.25;stroke-miterlimit:10;" x1="-32" x2="160" y1="16" y2="16"/>
              <line style="fill:none;stroke:#000000;stroke-width:0.25;stroke-miterlimit:10;" x1="-32" x2="160" y1="20" y2="20"/>
              <line style="fill:none;stroke:#000000;stroke-width:0.25;stroke-miterlimit:10;" x1="-32" x2="160" y1="24" y2="24"/>
              <line style="fill:none;stroke:#000000;stroke-width:0.25;stroke-miterlimit:10;" x1="-32" x2="160" y1="28" y2="28"/>
              <line style="fill:none;stroke:#000000;stroke-width:0.25;stroke-miterlimit:10;" x1="-32" x2="160" y1="32" y2="32"/>
              <line style="fill:none;stroke:#000000;stroke-width:0.25;stroke-miterlimit:10;" x1="-32" x2="160" y1="36" y2="36"/>
              <line style="fill:none;stroke:#000000;stroke-width:0.25;stroke-miterlimit:10;" x1="-32" x2="160" y1="40" y2="40"/>
              <line style="fill:none;stroke:#000000;stroke-width:0.25;stroke-miterlimit:10;" x1="-32" x2="160" y1="44" y2="44"/>
              <line style="fill:none;stroke:#000000;stroke-width:0.25;stroke-miterlimit:10;" x1="-32" x2="160" y1="48" y2="48"/>
              <line style="fill:none;stroke:#000000;stroke-width:0.25;stroke-miterlimit:10;" x1="-32" x2="160" y1="52" y2="52"/>
              <line style="fill:none;stroke:#000000;stroke-width:0.25;stroke-miterlimit:10;" x1="-32" x2="160" y1="56" y2="56"/>
              <line style="fill:none;stroke:#000000;stroke-width:0.25;stroke-miterlimit:10;" x1="-32" x2="160" y1="60" y2="60"/>
              <line style="fill:none;stroke:#000000;stroke-width:0.25;stroke-miterlimit:10;" x1="-32" x2="160" y1="64" y2="64"/>
              <line style="fill:none;stroke:#000000;stroke-width:0.25;stroke-miterlimit:10;" x1="-32" x2="160" y1="68" y2="68"/>
              <line style="fill:none;stroke:#000000;stroke-width:0.25;stroke-miterlimit:10;" x1="-32" x2="160" y1="72" y2="72"/>
              <line style="fill:none;stroke:#000000;stroke-width:0.25;stroke-miterlimit:10;" x1="-32" x2="160" y1="76" y2="76"/>
              <line style="fill:none;stroke:#000000;stroke-width:0.25;stroke-miterlimit:10;" x1="-32" x2="160" y1="80" y2="80"/>
              <line style="fill:none;stroke:#000000;stroke-width:0.25;stroke-miterlimit:10;" x1="-32" x2="160" y1="84" y2="84"/>
              <line style="fill:none;stroke:#000000;stroke-width:0.25;stroke-miterlimit:10;" x1="-32" x2="160" y1="88" y2="88"/>
              <line style="fill:none;stroke:#000000;stroke-width:0.25;stroke-miterlimit:10;" x1="-32" x2="160" y1="92" y2="92"/>
              <line style="fill:none;stroke:#000000;stroke-width:0.25;stroke-miterlimit:10;" x1="-32" x2="160" y1="96" y2="96"/>
              <line style="fill:none;stroke:#000000;stroke-width:0.25;stroke-miterlimit:10;" x1="-32" x2="160" y1="100" y2="100"/>
              <line style="fill:none;stroke:#000000;stroke-width:0.25;stroke-miterlimit:10;" x1="-32" x2="160" y1="104" y2="104"/>
              <line style="fill:none;stroke:#000000;stroke-width:0.25;stroke-miterlimit:10;" x1="-32" x2="160" y1="108" y2="108"/>
              <line style="fill:none;stroke:#000000;stroke-width:0.25;stroke-miterlimit:10;" x1="-32" x2="160" y1="112" y2="112"/>
              <line style="fill:none;stroke:#000000;stroke-width:0.25;stroke-miterlimit:10;" x1="-32" x2="160" y1="116" y2="116"/>
              <line style="fill:none;stroke:#000000;stroke-width:0.25;stroke-miterlimit:10;" x1="-32" x2="160" y1="120" y2="120"/>
              <line style="fill:none;stroke:#000000;stroke-width:0.25;stroke-miterlimit:10;" x1="-32" x2="160" y1="124" y2="124"/>
              <line style="fill:none;stroke:#000000;stroke-width:0.25;stroke-miterlimit:10;" x1="-32" x2="160" y1="128" y2="128"/>
              <line style="fill:none;stroke:#000000;stroke-width:0.25;stroke-miterlimit:10;" x1="-32" x2="160" y1="132" y2="132"/>
              <line style="fill:none;stroke:#000000;stroke-width:0.25;stroke-miterlimit:10;" x1="-32" x2="160" y1="136" y2="136"/>
              <line style="fill:none;stroke:#000000;stroke-width:0.25;stroke-miterlimit:10;" x1="-32" x2="160" y1="140" y2="140"/>
              <line style="fill:none;stroke:#000000;stroke-width:0.25;stroke-miterlimit:10;" x1="-32" x2="160" y1="144" y2="144"/>
              <line style="fill:none;stroke:#000000;stroke-width:0.25;stroke-miterlimit:10;" x1="-32" x2="160" y1="148" y2="148"/>
              <line style="fill:none;stroke:#000000;stroke-width:0.25;stroke-miterlimit:10;" x1="-32" x2="160" y1="152" y2="152"/>
              <line style="fill:none;stroke:#000000;stroke-width:0.25;stroke-miterlimit:10;" x1="-32" x2="160" y1="156" y2="156"/>
            </g>
            <path d="M159.75-31.75v191.5h-191.5v-191.5H159.75 M160-32H-32v192h192V-32L160-32z"/>
          </g>
        </g>
        <g>
          <rect height="128" style="opacity:0.3;fill:#F44336;" width="4" x="0" y="0"/>
          <rect height="128" style="opacity:0.3;fill:#F44336;" width="4" x="124" y="0"/>
          <rect height="120" style="opacity:0.3;fill:#F44336;" transform="matrix(-1.836970e-16 1 -1 -1.836970e-16 66 -62)" width="4" x="62" y="-58"/>
          <rect height="120" style="opacity:0.3;fill:#F44336;" transform="matrix(-1.836970e-16 1 -1 -1.836970e-16 190 62)" width="4" x="62" y="66"/>
        </g>
      </g>
    </g>
  </g>
</svg>
